openmetadata-ui/src/main/resources/ui/src/assets/svg/app-analytics.svg

<svg width="14" height="14" viewBox="0 0 14 14" fill="none" xmlns="http://www.w3.org/2000/svg">
<path d="M2.7998 9.60156H1.59993C1.26875 9.60191 1.00035 9.87031 1 10.2015V12.8012C1 12.9117 1.08952 13.0012 1.19997 13.0012H3.19974C3.31019 13.0012 3.39971 12.9117 3.39971 12.8012V10.2015C3.39936 9.87031 3.13098 9.60194 2.7998 9.60156ZM2.99977 12.6012H1.39994V10.2015C1.40008 10.0911 1.48953 10.0017 1.59991 10.0015H2.79978C2.91016 10.0017 2.99961 10.0911 2.99975 10.2015V12.6012H2.99977Z" fill="currentColor" stroke="currentColor" stroke-width="0.4"/>
<path d="M6.00195 6.79688H4.80208C4.4709 6.79723 4.2025 7.06563 4.20215 7.39681V12.7962C4.20215 12.9067 4.29167 12.9962 4.40212 12.9962H6.40189C6.51234 12.9962 6.60186 12.9067 6.60186 12.7962V7.39681C6.60151 7.0656 6.33313 6.79723 6.00195 6.79688ZM6.20192 12.5962H4.60209V7.39681C4.60223 7.28643 4.69168 7.19698 4.80206 7.19684H6.00193C6.11231 7.19698 6.20176 7.28643 6.2019 7.39681V12.5962H6.20192Z" fill="currentColor" stroke="currentColor" stroke-width="0.4"/>
<path d="M9.1933 8H7.99343C7.66225 8.00035 7.39385 8.26875 7.39349 8.59993V12.7995C7.39349 12.9099 7.48301 12.9994 7.59346 12.9994H9.59324C9.70368 12.9994 9.79321 12.9099 9.79321 12.7995V8.59993C9.79288 8.26873 9.52448 8.00035 9.1933 8ZM9.39329 12.5995H7.79346V8.59993C7.7936 8.48956 7.88305 8.4001 7.99343 8.39996H9.1933C9.30367 8.4001 9.39313 8.48956 9.39327 8.59993V12.5995H9.39329Z" fill="currentColor" stroke="currentColor" stroke-width="0.4"/>
<path d="M12.399 6.39844H11.1992C10.868 6.39879 10.5996 6.66719 10.5992 6.99837V12.7977C10.5992 12.9082 10.6888 12.9977 10.7992 12.9977H12.799C12.9094 12.9977 12.999 12.9082 12.999 12.7977V6.99837C12.9986 6.66719 12.7302 6.39879 12.399 6.39844ZM12.599 12.5977H10.9992V6.99837C10.9993 6.88799 11.0888 6.79854 11.1992 6.7984H12.399C12.5094 6.79854 12.5989 6.88799 12.599 6.99837V12.5977H12.599Z" fill="currentColor" stroke="currentColor" stroke-width="0.4"/>
<path d="M10.9031 3.39716C11.2695 3.80952 11.8699 3.91877 12.358 3.66188C12.8462 3.40499 13.0961 2.84822 12.9636 2.31276C12.8311 1.77729 12.3504 1.4013 11.7988 1.40163C11.3984 1.40132 11.0242 1.60094 10.8015 1.93374C10.5788 2.26654 10.5369 2.68856 10.6899 3.05862L9.4949 3.80561C9.27989 3.56186 8.97479 3.41628 8.65005 3.40246C8.32531 3.38863 8.00897 3.5078 7.77403 3.7324L6.46514 2.75073C6.74186 2.2155 6.57866 1.55806 6.08376 1.21436C5.58887 0.870665 4.91581 0.947344 4.51093 1.39357C4.10604 1.83979 4.09494 2.51711 4.48496 2.97636L2.80838 4.96875C2.27078 4.65243 1.58046 4.80079 1.22029 5.31006C0.86012 5.81932 0.950204 6.51963 1.42757 6.92114C1.90494 7.32265 2.61031 7.29143 3.05035 6.84933C3.49039 6.40724 3.51827 5.7017 3.11451 5.22623L4.79109 3.23384C5.25143 3.50768 5.83791 3.4408 6.22477 3.07034L7.53366 4.052C7.27892 4.54542 7.39614 5.1492 7.81701 5.51146C8.23788 5.87372 8.85239 5.89973 9.30239 5.57436C9.75238 5.24899 9.92025 4.6573 9.70814 4.1441L10.9031 3.39716ZM11.7988 1.80159C12.2406 1.80159 12.5987 2.15973 12.5987 2.6015C12.5982 3.04306 12.2404 3.40091 11.7988 3.4014C11.3571 3.4014 10.9989 3.04327 10.9989 2.6015C10.9989 2.15973 11.357 1.80159 11.7988 1.80159ZM2.19989 6.80106C1.75812 6.80106 1.39999 6.44293 1.39999 6.00115C1.39999 5.55938 1.75812 5.20125 2.19989 5.20125C2.64167 5.20125 2.9998 5.55938 2.9998 6.00115C2.99928 6.44272 2.64146 6.80054 2.19989 6.80106ZM5.39953 3.00146C4.95776 3.00146 4.59963 2.64333 4.59963 2.20156C4.59963 1.75979 4.95776 1.40165 5.39953 1.40165C5.84131 1.40165 6.19944 1.75979 6.19944 2.20156C6.19895 2.64312 5.8411 3.00097 5.39953 3.00146ZM8.59917 5.4012C8.1574 5.4012 7.79927 5.04306 7.79927 4.60129C7.79927 4.15952 8.1574 3.80139 8.59917 3.80139C9.04095 3.80139 9.39908 4.15952 9.39908 4.60129C9.39859 5.04285 9.04076 5.40071 8.59917 5.4012Z" fill="currentColor" stroke="currentColor" stroke-width="0.4"/>
</svg>

<svg xmlns="http://www.w3.org/2000/svg" width="14" height="14" fill="none"><path fill="currentColor" stroke="currentColor" stroke-width=".4" d="M2.8 9.602H1.6a.6.6 0 0 0-.6.6v2.6c0 .11.09.2.2.2h2a.2.2 0 0 0 .2-.2v-2.6a.6.6 0 0 0-.6-.6Zm.2 3H1.4v-2.4c0-.11.09-.2.2-.2h1.2c.11 0 .2.09.2.2v2.4ZM6.002 6.797h-1.2a.6.6 0 0 0-.6.6v5.4c0 .11.09.2.2.2h2a.2.2 0 0 0 .2-.2v-5.4a.6.6 0 0 0-.6-.6Zm.2 5.8h-1.6v-5.2c0-.11.09-.2.2-.2h1.2c.11 0 .2.09.2.2v5.2ZM9.193 8h-1.2a.6.6 0 0 0-.6.6v4.2c0 .11.09.2.2.2h2a.2.2 0 0 0 .2-.2V8.6a.6.6 0 0 0-.6-.6Zm.2 4.6h-1.6v-4c0-.11.09-.2.2-.2h1.2c.11 0 .2.09.2.2v4ZM12.399 6.398h-1.2a.6.6 0 0 0-.6.6v5.8c0 .11.09.2.2.2h2a.2.2 0 0 0 .2-.2v-5.8a.6.6 0 0 0-.6-.6Zm.2 6.2h-1.6v-5.6c0-.11.09-.2.2-.2h1.2c.11 0 .2.09.2.2v5.6ZM10.903 3.397a1.2 1.2 0 1 0-.213-.338l-1.195.747a1.194 1.194 0 0 0-1.721-.074l-1.309-.981a1.2 1.2 0 1 0-1.98.225L2.808 4.97a1.2 1.2 0 1 0 .307.257L4.79 3.234c.46.274 1.047.207 1.434-.164l1.309.982a1.2 1.2 0 1 0 2.174.092l1.195-.747Zm.896-1.595a.8.8 0 1 1 0 1.6.8.8 0 0 1 0-1.6Zm-9.6 5a.8.8 0 1 1 0-1.6.8.8 0 0 1 0 1.6Zm3.2-3.8a.8.8 0 1 1 0-1.6.8.8 0 0 1 0 1.6Zm3.2 2.4a.8.8 0 1 1 0-1.6.8.8 0 0 1 0 1.6Z"/></svg>
